static/assets/images/networks/polygon-mono.svg

<svg width="291" height="256" viewBox="0 0 291 256" fill="none" xmlns="http://www.w3.org/2000/svg">
<path d="M220.339 78.2434C215.021 75.2048 208.183 75.2048 202.104 78.2434L159.556 103.312L130.684 119.264L88.8956 144.332C83.577 147.371 76.7389 147.371 70.6606 144.332L37.9896 124.582C32.671 121.543 28.8721 115.466 28.8721 108.629V70.6469C28.8721 64.5698 31.9112 58.4926 37.9896 54.6944L70.6606 35.7033C75.9791 32.6647 82.8172 32.6647 88.8956 35.7033L121.567 55.454C126.885 58.4926 130.684 64.5698 130.684 71.4066V96.4749L159.556 79.7627V53.9347C159.556 47.8576 156.517 41.7805 150.438 37.9822L89.6554 2.27893C84.3368 -0.759645 77.4987 -0.759645 71.4204 2.27893L9.11749 38.7419C3.03916 41.7805 0 47.8576 0 53.9347V125.341C0 131.418 3.03916 137.495 9.11749 141.294L70.6606 176.997C75.9791 180.036 82.8172 180.036 88.8956 176.997L130.684 152.688L159.556 135.976L201.345 111.668C206.663 108.629 213.501 108.629 219.58 111.668L252.251 130.659C257.569 133.697 261.368 139.774 261.368 146.611V184.593C261.368 190.671 258.329 196.748 252.251 200.546L220.339 219.537C215.021 222.576 208.183 222.576 202.104 219.537L169.433 200.546C164.115 197.507 160.315 191.43 160.315 184.593V160.285L131.444 176.997V202.065C131.444 208.142 134.483 214.22 140.561 218.018L202.104 253.721C207.423 256.76 214.261 256.76 220.339 253.721L281.882 218.018C287.201 214.979 291 208.902 291 202.065V129.899C291 123.822 287.961 117.745 281.882 113.947L220.339 78.2434Z" fill="black"/>
</svg>

<svg xmlns="http://www.w3.org/2000/svg" fill="none" viewBox="0 0 291 256"><path fill="#000" d="M220.339 78.243c-5.318-3.038-12.156-3.038-18.235 0l-42.548 25.069-28.872 15.952-41.788 25.068c-5.319 3.039-12.157 3.039-18.235 0l-32.671-19.75c-5.319-3.039-9.118-9.116-9.118-15.953V70.647c0-6.077 3.04-12.154 9.118-15.953l32.67-18.99c5.32-3.04 12.157-3.04 18.236 0l32.671 19.75c5.318 3.039 9.117 9.116 9.117 15.953v25.068l28.872-16.712V53.935c0-6.077-3.039-12.154-9.118-15.953L89.655 2.28C84.337-.76 77.5-.76 71.42 2.279L9.117 38.742C3.04 41.78 0 47.858 0 53.935v71.406c0 6.077 3.04 12.154 9.117 15.953l61.544 35.703c5.318 3.039 12.156 3.039 18.235 0l41.788-24.309 28.872-16.712 41.789-24.308c5.318-3.039 12.156-3.039 18.235 0l32.671 18.991c5.318 3.038 9.117 9.115 9.117 15.952v37.982c0 6.078-3.039 12.155-9.117 15.953l-31.912 18.991c-5.318 3.039-12.156 3.039-18.235 0l-32.671-18.991c-5.318-3.039-9.118-9.116-9.118-15.953v-24.308l-28.871 16.712v25.068c0 6.077 3.039 12.155 9.117 15.953l61.543 35.703c5.319 3.039 12.157 3.039 18.235 0l61.543-35.703c5.319-3.039 9.118-9.116 9.118-15.953v-72.166c0-6.077-3.039-12.154-9.118-15.952z"/></svg>
